material/.icons/material/egg-easter.svg

<svg xmlns="http://www.w3.org/2000/svg" viewBox="0 0 24 24"><path d="M6.89 6.36C8.23 3.91 10 2 12 2c2 0 3.77 1.91 5.11 4.36-.85.21-1.61.71-2.11 1.41a3.712 3.712 0 00-5.2-.8c-.3.22-.58.49-.8.8-.5-.7-1.26-1.2-2.11-1.41M15 18.06l-3-3-3 3-3-3-1.27 1.27a7.504 7.504 0 009.11 5.43 7.529 7.529 0 005.43-5.43L18 15.06l-3 3m-6-2.12l3-3 3 3 3-3 1.5 1.5c-.13-2.31-.7-4.58-1.69-6.68-1.16.1-2.06 1.07-2.06 2.24h-1.5A2.25 2.25 0 0012 7.75 2.25 2.25 0 009.75 10h-1.5c0-1.17-.9-2.14-2.06-2.24-.99 2.1-1.56 4.37-1.69 6.68l1.5-1.5 3 3z"/></svg>

<?xml version="1.0" encoding="UTF-8"?><!DOCTYPE svg PUBLIC "-//W3C//DTD SVG 1.1//EN" "http://www.w3.org/Graphics/SVG/1.1/DTD/svg11.dtd"><svg xmlns="http://www.w3.org/2000/svg" xmlns:xlink="http://www.w3.org/1999/xlink" version="1.1" id="mdi-egg-easter" width="24" height="24" viewBox="0 0 24 24"><path d="M6.89,6.36C8.23,3.91 10,2 12,2C14,2 15.77,3.91 17.11,6.36C16.26,6.57 15.5,7.07 15,7.77C13.79,6.11 11.46,5.75 9.8,6.97C9.5,7.19 9.22,7.46 9,7.77C8.5,7.07 7.74,6.57 6.89,6.36M15,18.06L12,15.06L9,18.06L6,15.06L4.73,16.33C5.75,20.35 9.83,22.77 13.84,21.76C16.5,21.08 18.59,19 19.27,16.33L18,15.06L15,18.06M9,15.94L12,12.94L15,15.94L18,12.94L19.5,14.44C19.37,12.13 18.8,9.86 17.81,7.76C16.65,7.86 15.75,8.83 15.75,10H14.25A2.25,2.25 0 0,0 12,7.75A2.25,2.25 0 0,0 9.75,10H8.25C8.25,8.83 7.35,7.86 6.19,7.76C5.2,9.86 4.63,12.13 4.5,14.44L6,12.94L9,15.94Z" /></svg>
